16x16/panel/battery-missing-symbolic.svg

<svg height="16" width="16" xmlns="http://www.w3.org/2000/svg"><g fill="#bebebe"><path d="m6 1v1h4v-1zm-2.156 2c-.281.047-.844.25-.844 1v10c0 1 1 1 1 1h4c-.732 0-1.37-.403-1.719-1h-2.281v-10h1.313a4.035 4.035 0 0 1 2.437-1h-3.75s-.062-.016-.156 0zm4.156 12h4c1 0 1-1 1-1v-10s0-1-1-1h-4.187a4.038 4.038 0 0 1 2.812 1h1.375v10h-2.281c-.349.597-.987 1-1.719 1z" opacity=".35"/><path d="m7.813 4c1.642-.092 3.095 1.17 3.187 2.813 0 1.4-.378 1.921-1.594 2.843-.19.144-.325.25-.375.313-.05.062-.03.033-.03.031.006.528-.473 1-1 1-.53 0-1.008-.472-1-1 0-.502.223-.943.468-1.25a3.82 3.82 0 0 1 .719-.688c.204-.16.46-.384.687-.656.094-.112.13-.307.125-.437v-.032a.988.988 0 0 0 -1.062-.937c-.564.032-.97.437-.938 1h-2c-.092-1.642 1.17-2.908 2.813-3zm.187 8a1 1 0 1 1 0 2 1 1 0 0 1 0-2z"/></g></svg>

<svg height="16" width="16" xmlns="http://www.w3.org/2000/svg">
    <g fill="#bebebe">
        <path d="M6 1v1h4V1zM3.844 3C3.563 3.047 3 3.25 3 4v10c0 1 1 1 1 1h4c-.732 0-1.37-.403-1.719-1H4V4h1.313A4.035 4.035 0 0 1 7.75 3H4s-.062-.016-.156 0zM8 15h4c1 0 1-1 1-1V4s0-1-1-1H7.813a4.038 4.038 0 0 1 2.812 1H12v10H9.719c-.349.597-.987 1-1.719 1z" opacity=".35"/>
        <path d="M7.813 4C9.455 3.908 10.908 5.17 11 6.813c0 1.4-.378 1.921-1.594 2.843-.19.144-.325.25-.375.313-.05.062-.03.033-.03.031.006.528-.473 1-1 1-.53 0-1.008-.472-1-1 0-.502.223-.943.468-1.25a3.82 3.82 0 0 1 .719-.688c.204-.16.46-.384.687-.656.094-.112.13-.307.125-.437v-.032A.988.988 0 0 0 7.938 6c-.564.032-.97.437-.938 1H5c-.092-1.642 1.17-2.908 2.813-3zM8 12a1 1 0 1 1 0 2 1 1 0 0 1 0-2z"/>
    </g>
</svg>
